X:7317
T:Humours of Ballyloughlin
M:6/8
L:1/8
S:Matt Molloy
R:Double Jig
K:DMix
~A3 AGE|GED D2B|cBc ded|cAG FED|
~A3 AGE|~G3 cGE|~D3 DFA|~D3 D3:||
||:cBc cBc|cAG AB^c|~d3 dfd|dAF DFA| cBc dcB|cAG FGE|~D3
DFA|~D3 D3:||
||:fdd gdd|fdd gdd|^cde ged|^cde ~g3| fdd gdd|fdd gdd|^cde
gag|ed^c d3:||
||:A2D AAG|~F3 GED|~E3 ~E3|~E3 EFG|
~A3 dAG|~F3 GEA|~D3 DFA|~D3 D3:||


